X:1
T:Viglia, SMD
T:Julian Kennedy Smyth (1856-1921)
T:Viglia, SMD
T:Public Domain
C:Julian Kennedy Smyth (1856-1921)
Z:Public Domain
%%score ( 1 2 ) ( 3 4 )
L:1/8
M:4/4
K:Bb
V:1 treble 
V:2 treble 
V:3 bass 
V:4 bass 
V:1
 B,2 | D2 F2 B2 [EB]2 | [DB]6 D2 | F2 [B,B]2 [Dd]2 [^Fd]2 | [Gd]6 [Gd]2 | [Fd]3 [Fd] [Fe]2 [Fd]2 | %6
 [=Ed]3 [Ec] [EG]2 [FA]2 | [=EB]2 [D=B]2 [Gc]2 [EG]2 | [FA]6 [EF]2 | [DF]3 [DF] [FB]2 [FA]2 | %10
 [EG]6 [EG]2 | [=EG]3 [EG] [Gc]2 [GB]2 | [FA]6 F2 | [Fc]3 [Fc] [Fd]2 [Fc]2 | %14
 [Ff]2 [FB]2 [CA]2 [CG]2 | [DF]2 [DB]2 [EB]2 [Ec]2 | [DB]6 |] %17
V:2
 B,2 | D2 F2 B2 x2 | x8 | x8 | x8 | x8 | x8 | x8 | x8 | x8 | x8 | x8 | x8 | x8 | x8 | x8 | x6 |] %17
V:3
 B,,2 | D,2 F,2 B,2 [E,G,]2 | [B,,F,]6 D,2 | F,2 B,2 D2 [D,A,]2 | [G,B,]6 [G,B,]2 | %5
 [G,=B,]3 [G,B,] [G,B,]2 [G,B,]2 | [C,B,]3 [C,B,] [C,B,]2 [C,A,]2 | %7
 [C,G,]2 [F,G,]2 [=E,B,]2 [C,C]2 | [F,C]6 [F,,F,A,]2 | [B,,F,]3 [B,,B,] [D,B,]2 [D,B,]2 | %10
 [E,B,]6 [E,B,]2 | [C,C]3 [C,C] [=E,G,]2 [E,C]2 | [F,C]6 [F,A,]2 | [E,A,]3 [E,A,] [E,A,]2 [E,A,]2 | %14
 [D,B,]2 [D,B,]2 [=E,B,]2 [E,B,]2 | [F,B,]2 [F,B,]2 [F,G,]2 [F,,F,A,]2 | [B,,F,]6 |] %17
V:4
 B,,2 | D,2 F,2 B,2 x2 | x8 | x8 | x8 | x8 | x8 | x8 | x8 | x8 | x8 | x8 | x8 | x8 | x8 | x8 | %16
 x6 |] %17

